X: 1
T: Geamparele in  D
O: Romanian
R: (r\ua\vcenica)
S: Fiddle Hell Online 2021-11-6
Z: transcribed by Beth Bahia Cohen
Z: 2022 John Chambers <jc:trillian.mit.edu>
M: 7/8
L: 1/8
K: Dm
"^A"|:\
    "Dm"(GF) (FE) (DF)A | (de) (fe) (dc)B |\
    "E"d2 (cB) (AB)G | "am"A2 (AE) A2E || "F"B2 c2 (cB)c |
    "Gm"dd cc (_BA)G |\
[1,3 "C"cc _BA (GA)G | "F"F2 (FE) "A7"(FG)A :|\
[2,4 "A"AG GF (FE)C | "Dm"D2 D2 D2D :|
"^B"|:\
   "D"B2 c2 (cB)c | dd c_B "Gm"(BA)G |\
   "C"cc _BA (GA)G | "F"F2 (FC) F(FC) || "D"^F2 G2 (GF)G |
   "Gm"c_B BA (GF)E |\
[1 "A"GG FE G(GE) | "Dm"(DE)(FG) A(AF) :|\
[2 "A"GG FE (DE)D | "Dm"D2 D2 D3 |]
"^C"|:\
    "Dm"GG FE (DF)A | (GA) (dA) (GF)E |\
[1,3 "G"GG FE (DE)D | "C"C2 (CG,) C2G, :|\
[2,4 "A7"GG FE (DE)C | "Dm"D2 (DA,) D2A, :|
